;FLAVOR:Marlin
;TIME:3086
;Filament used: 1.62303m, 0m, 0m
;Layer height: 0.3
;Generated with Cura_SteamEngine 3.6.0
T0
M104 S200
M105
M109 S200
M82 ;absolute extrusion mode
G28 ;Home
G1 Z15.0 F6000 ;Move the platform down 15mm
;Prime the extruder
G92 E0
G1 F200 E3
G92 E0
G92 E0
G1 F1500 E-6.5
;LAYER_COUNT:161
;LAYER:0
M107
G0 F3600 X21.174 Y36.732 Z0.3
;TYPE:SKIRT
G1 F1500 E0
G1 F1800 X21.879 Y36.377 E0.01485
G1 X22.626 Y36.092 E0.02989
G1 X23.135 Y35.927 E0.03995
G1 X23.897 Y35.722 E0.0548
G1 X25.063 Y35.562 E0.07693
G1 X49.151 Y34.086 E0.53089
G1 X49.916 Y34.076 E0.54528
G1 X51.867 Y34.148 E0.58201
G1 X52.845 Y34.246 E0.6005
G1 X54.644 Y34.542 E0.63479
G1 X55.361 Y34.695 E0.64858
G1 X56.289 Y34.939 E0.66663
G1 X56.963 Y35.149 E0.67991
G1 X58.611 Y35.746 E0.71288
G1 X59.238 Y36.005 E0.72564
G1 X60.102 Y36.406 E0.74356
G1 X60.739 Y36.738 E0.75707
G1 X62.206 Y37.591 E0.78899
G1 X63.118 Y38.212 E0.80975
G1 X65.137 Y39.806 E0.85814
G1 X65.732 Y40.326 E0.873
G1 X66.02 Y40.621 E0.88076
G1 X67.381 Y42.087 E0.91838
G1 X67.955 Y42.781 E0.93533
G1 X68.824 Y43.966 E0.96297
G1 X69.353 Y44.793 E0.98143
G1 X69.951 Y45.87 E1.00461
G1 X70.299 Y46.579 E1.01946
G1 X70.574 Y47.319 E1.03431
G1 X70.772 Y48.083 E1.04916
G1 X70.877 Y48.73 E1.06149
G1 X70.924 Y49.123 E1.06893
G1 X70.978 Y49.911 E1.08379
G1 X70.952 Y50.7 E1.09864
G1 X70.856 Y51.427 E1.11244
G1 X70.793 Y51.778 E1.11914
G1 X70.615 Y52.547 E1.13399
G1 X70.359 Y53.294 E1.14884
G1 X69.864 Y54.313 E1.17015
G1 X69.196 Y55.465 E1.1952
G1 X68.63 Y56.308 E1.2143
G1 X67.536 Y57.73 E1.24805
G1 X66.814 Y58.545 E1.26853
G1 X65.058 Y60.266 E1.31478
G1 X64.466 Y60.789 E1.32964
G1 X64.079 Y61.079 E1.33874
G1 X62.137 Y62.442 E1.38337
G1 X61.468 Y62.863 E1.39824
G1 X61.069 Y63.072 E1.40671
G1 X58.872 Y64.141 E1.45267
G1 X58.145 Y64.45 E1.46753
G1 X57.668 Y64.608 E1.47698
G1 X55.325 Y65.3 E1.52294
G1 X54.558 Y65.485 E1.53778
G1 X54.057 Y65.562 E1.54731
G1 X51.539 Y65.868 E1.59503
G1 X50.534 Y65.925 E1.61396
G1 X49.203 Y65.914 E1.639
G1 X48.79 Y65.899 E1.64677
G1 X25.149 Y64.45 E2.09231
G1 X24.364 Y64.362 E2.10717
G1 X23.592 Y64.195 E2.12202
G1 X22.888 Y63.969 E2.13593
G1 X22.093 Y63.671 E2.1519
G1 X21.369 Y63.356 E2.16675
G1 X20.68 Y62.971 E2.1816
G1 X20.033 Y62.517 E2.19647
G1 X19.436 Y62 E2.21132
G1 X19.084 Y61.641 E2.22078
G1 X18.604 Y61.118 E2.23414
G1 X18.101 Y60.51 E2.24898
G1 X17.661 Y59.854 E2.26384
G1 X17.29 Y59.157 E2.27869
G1 X17.024 Y58.518 E2.29171
G1 X16.812 Y57.937 E2.30334
G1 X16.579 Y57.182 E2.31821
G1 X16.423 Y56.408 E2.33306
G1 X16.339 Y55.291 E2.35413
G1 X16.302 Y45.141 E2.54506
G1 X16.382 Y44 E2.56657
G1 X16.46 Y43.459 E2.57685
G1 X16.612 Y42.684 E2.59171
G1 X16.978 Y41.577 E2.61364
G1 X17.146 Y41.173 E2.62187
G1 X17.486 Y40.46 E2.63673
G1 X17.896 Y39.785 E2.65159
G1 X18.173 Y39.402 E2.66048
G1 X18.464 Y39.025 E2.66944
G1 X18.978 Y38.425 E2.6843
G1 X19.55 Y37.88 E2.69916
G1 X20.116 Y37.436 E2.71269
G1 X20.508 Y37.157 E2.72174
G1 X21.174 Y36.732 E2.7366
G0 F3600 X21.389 Y37.07
G1 F1800 X22.077 Y36.727 E2.75107
G1 X22.749 Y36.473 E2.76458
G1 X23.258 Y36.308 E2.77464
G1 X24.001 Y36.109 E2.78911
G1 X25.087 Y35.961 E2.80973
G1 X49.175 Y34.485 E3.26369
G1 X49.901 Y34.476 E3.27735
G1 X51.852 Y34.548 E3.31407
G1 X52.78 Y34.641 E3.33161
G1 X54.579 Y34.937 E3.36591
G1 X55.26 Y35.082 E3.37901
G1 X56.188 Y35.326 E3.39706
G1 X56.826 Y35.525 E3.40963
G1 X58.474 Y36.122 E3.4426
G1 X59.069 Y36.368 E3.45471
G1 X59.933 Y36.769 E3.47263
G1 X60.538 Y37.084 E3.48546
G1 X62.005 Y37.937 E3.51738
G1 X62.87 Y38.526 E3.53706
G1 X64.889 Y40.12 E3.58545
G1 X65.727 Y40.893 E3.6069
G1 X67.088 Y42.359 E3.64452
G1 X67.632 Y43.018 E3.6606
G1 X68.501 Y44.203 E3.68824
G1 X69.004 Y44.987 E3.70576
G1 X69.602 Y46.064 E3.72893
G1 X69.94 Y46.755 E3.7434
G1 X70.204 Y47.477 E3.75787
G1 X70.392 Y48.223 E3.77234
G1 X70.48 Y48.777 E3.78289
G1 X70.527 Y49.17 E3.79033
G1 X70.578 Y49.938 E3.80481
G1 X70.55 Y50.706 E3.81927
G1 X70.463 Y51.356 E3.8316
G1 X70.4 Y51.707 E3.83831
G1 X70.225 Y52.456 E3.85278
G1 X69.973 Y53.183 E3.86725
G1 X69.518 Y54.112 E3.88671
G1 X68.85 Y55.264 E3.91176
G1 X68.313 Y56.064 E3.92989
G1 X67.219 Y57.486 E3.96363
G1 X66.534 Y58.259 E3.98306
G1 X64.778 Y59.98 E4.02931
G1 X64.201 Y60.489 E4.04379
G1 X63.849 Y60.752 E4.05205
G1 X61.907 Y62.115 E4.09668
G1 X61.255 Y62.524 E4.11116
G1 X60.894 Y62.712 E4.11882
G1 X58.697 Y63.781 E4.16477
G1 X57.989 Y64.081 E4.17924
G1 X57.555 Y64.224 E4.18783
G1 X55.212 Y64.916 E4.23379
G1 X54.464 Y65.095 E4.24826
G1 X54.009 Y65.165 E4.25692
G1 X51.491 Y65.471 E4.30463
G1 X50.537 Y65.525 E4.3226
G1 X49.206 Y65.514 E4.34764
G1 X48.814 Y65.5 E4.35502
G1 X25.173 Y64.051 E4.80056
G1 X24.409 Y63.964 E4.81502
G1 X23.658 Y63.799 E4.82948
G1 X23.029 Y63.594 E4.84193
G1 X22.234 Y63.296 E4.8579
G1 X21.528 Y62.989 E4.87238
G1 X20.859 Y62.611 E4.88683
G1 X20.232 Y62.165 E4.90131
G1 X19.655 Y61.656 E4.91578
G1 X19.379 Y61.371 E4.92324
G1 X18.899 Y60.848 E4.9366
G1 X18.409 Y60.255 E4.95107
G1 X17.983 Y59.614 E4.96554
G1 X17.626 Y58.933 E4.98001
G1 X17.399 Y58.381 E4.99123
G1 X17.187 Y57.8 E5.00287
G1 X16.962 Y57.064 E5.01735
G1 X16.813 Y56.31 E5.0318
G1 X16.739 Y55.29 E5.05104
G1 X16.702 Y45.14 E5.24197
G1 X16.778 Y44.057 E5.26239
G1 X16.856 Y43.516 E5.27267
G1 X17.005 Y42.761 E5.28715
G1 X17.347 Y41.731 E5.30756
G1 X17.515 Y41.327 E5.31579
G1 X17.847 Y40.633 E5.33026
G1 X18.249 Y39.977 E5.34474
G1 X18.49 Y39.646 E5.35244
G1 X18.781 Y39.269 E5.3614
G1 X19.282 Y38.686 E5.37586
G1 X19.841 Y38.157 E5.39033
G1 X20.348 Y37.762 E5.40242
G1 X20.74 Y37.483 E5.41147
G1 X21.389 Y37.07 E5.42594
G0 F3600 X21.604 Y37.408
G1 F1800 X22.275 Y37.078 E5.44001
G1 X22.872 Y36.853 E5.45201
G1 X23.381 Y36.688 E5.46208
G1 X24.104 Y36.496 E5.47615
G1 X25.112 Y36.36 E5.49528
G1 X49.2 Y34.884 E5.94924
G1 X49.886 Y34.876 E5.96214
G1 X51.837 Y34.948 E5.99887
G1 X52.715 Y35.036 E6.01547
G1 X54.514 Y35.332 E6.04976
G1 X55.158 Y35.469 E6.06215
G1 X56.086 Y35.713 E6.0802
G1 X56.69 Y35.902 E6.0921
G1 X58.338 Y36.499 E6.12507
G1 X58.901 Y36.731 E6.13653
G1 X59.765 Y37.132 E6.15444
G1 X60.337 Y37.43 E6.16658
G1 X61.804 Y38.283 E6.1985
G1 X62.623 Y38.84 E6.21713
G1 X64.642 Y40.434 E6.26552
G1 X65.434 Y41.165 E6.28579
G1 X66.795 Y42.631 E6.32342
G1 X67.31 Y43.254 E6.33862
G1 X68.179 Y44.439 E6.36627
G1 X68.654 Y45.181 E6.38284
G1 X69.252 Y46.258 E6.40601
G1 X69.58 Y46.93 E6.42008
G1 X69.834 Y47.634 E6.43415
G1 X70.011 Y48.361 E6.44823
G1 X70.082 Y48.825 E6.45706
G1 X70.129 Y49.218 E6.4645
G1 X70.178 Y49.964 E6.47857
G1 X70.148 Y50.712 E6.49265
G1 X70.069 Y51.286 E6.50355
G1 X70.006 Y51.637 E6.51026
G1 X69.835 Y52.365 E6.52432
G1 X69.587 Y53.071 E6.5384
G1 X69.172 Y53.911 E6.55602
G1 X68.504 Y55.063 E6.58107
G1 X67.996 Y55.82 E6.59822
G1 X66.902 Y57.242 E6.63197
G1 X66.254 Y57.973 E6.65034
G1 X64.498 Y59.694 E6.69659
G1 X63.936 Y60.189 E6.71068
G1 X63.619 Y60.425 E6.71812
G1 X61.677 Y61.788 E6.76275
G1 X60.719 Y62.352 E6.78366
G1 X58.522 Y63.421 E6.82962
G1 X57.833 Y63.712 E6.84369
G1 X57.442 Y63.84 E6.85142
G1 X55.099 Y64.532 E6.89738
G1 X54.371 Y64.706 E6.91146
G1 X53.96 Y64.768 E6.91928
G1 X51.442 Y65.074 E6.96699
G1 X50.54 Y65.125 E6.98399
G1 X49.209 Y65.114 E7.00902
G1 X48.839 Y65.101 E7.01599
G1 X25.198 Y63.652 E7.46152
G1 X24.455 Y63.566 E7.47559
G1 X23.725 Y63.402 E7.48967
G1 X23.169 Y63.22 E7.50067
G1 X22.374 Y62.922 E7.51664
G1 X21.689 Y62.622 E7.53071
G1 X21.039 Y62.251 E7.54479
G1 X20.433 Y61.813 E7.55885
G1 X19.674 Y61.1 E7.57844
G1 X19.194 Y60.577 E7.59179
G1 X18.718 Y60 E7.60586
G1 X18.307 Y59.375 E7.61993
G1 X17.965 Y58.71 E7.634
G1 X17.775 Y58.243 E7.64348
G1 X17.563 Y57.662 E7.65512
G1 X17.345 Y56.947 E7.66918
G1 X17.204 Y56.212 E7.68326
G1 X17.139 Y55.289 E7.70066
G1 X17.102 Y45.139 E7.89159
G1 X17.174 Y44.114 E7.91092
G1 X17.252 Y43.573 E7.9212
G1 X17.398 Y42.839 E7.93528
G1 X17.717 Y41.884 E7.95422
G1 X17.885 Y41.48 E7.96245
G1 X18.208 Y40.806 E7.97651
G1 X18.807 Y39.891 E7.99708
G1 X19.098 Y39.514 E8.00604
G1 X19.586 Y38.947 E8.02011
G1 X20.132 Y38.435 E8.03419
G1 X20.58 Y38.088 E8.04485
G1 X20.972 Y37.809 E8.0539
G1 X21.604 Y37.408 E8.06798
G0 F3600 X21.818 Y37.747
G1 F1800 X22.471 Y37.429 E8.08164
G1 X22.996 Y37.234 E8.09218
G1 X23.505 Y37.069 E8.10224
G1 X24.207 Y36.883 E8.1159
G1 X25.136 Y36.759 E8.13353
G1 X49.224 Y35.283 E8.58749
G1 X49.871 Y35.275 E8.59966
G1 X51.822 Y35.347 E8.63639
G1 X52.651 Y35.431 E8.65206
G1 X54.45 Y35.727 E8.68635
G1 X55.056 Y35.856 E8.69801
G1 X55.984 Y36.1 E8.71606
G1 X56.554 Y36.278 E8.72729
G1 X58.202 Y36.875 E8.76026
G1 X58.733 Y37.093 E8.77106
G1 X59.597 Y37.494 E8.78898
G1 X60.136 Y37.775 E8.80041
G1 X61.603 Y38.628 E8.83233
G1 X62.375 Y39.154 E8.8499
G1 X64.394 Y40.748 E8.89829
G1 X65.141 Y41.438 E8.91742
G1 X66.502 Y42.904 E8.95505
G1 X66.987 Y43.491 E8.96937
G1 X67.856 Y44.676 E8.99701
G1 X68.304 Y45.375 E9.01263
G1 X68.902 Y46.452 E9.0358
G1 X69.219 Y47.106 E9.04947
G1 X69.463 Y47.79 E9.06314
G1 X69.629 Y48.497 E9.0768
G1 X69.685 Y48.872 E9.08393
G1 X69.732 Y49.265 E9.09137
G1 X69.779 Y49.99 E9.10504
G1 X69.745 Y50.716 E9.11871
G1 X69.675 Y51.215 E9.12819
G1 X69.612 Y51.566 E9.1349
G1 X69.445 Y52.273 E9.14856
G1 X69.201 Y52.957 E9.16222
G1 X68.826 Y53.711 E9.17806
G1 X68.158 Y54.863 E9.20311
G1 X67.679 Y55.576 E9.21927
G1 X66.585 Y56.998 E9.25302
G1 X65.974 Y57.688 E9.27036
G1 X64.218 Y59.409 E9.31661
G1 X63.39 Y60.097 E9.33686
G1 X61.448 Y61.46 E9.38149
G1 X60.544 Y61.993 E9.40123
G1 X58.347 Y63.062 E9.44719
G1 X57.677 Y63.343 E9.46085
G1 X57.328 Y63.457 E9.46776
G1 X54.985 Y64.149 E9.51371
G1 X54.279 Y64.316 E9.52736
G1 X53.912 Y64.371 E9.53434
G1 X51.394 Y64.677 E9.58205
G1 X50.543 Y64.725 E9.59809
G1 X49.212 Y64.714 E9.62313
G1 X48.863 Y64.702 E9.62969
G1 X25.222 Y63.253 E10.07523
G1 X24.501 Y63.168 E10.08889
G1 X23.793 Y63.005 E10.10255
G1 X23.309 Y62.845 E10.11214
G1 X22.514 Y62.547 E10.12811
G1 X21.849 Y62.255 E10.14177
G1 X21.22 Y61.892 E10.15543
G1 X20.635 Y61.462 E10.16909
G1 X19.968 Y60.83 E10.18637
G1 X19.488 Y60.307 E10.19973
G1 X19.028 Y59.745 E10.21339
G1 X18.631 Y59.137 E10.22705
G1 X18.304 Y58.488 E10.24072
G1 X18.151 Y58.106 E10.24846
G1 X17.939 Y57.525 E10.26009
G1 X17.728 Y56.83 E10.27376
G1 X17.594 Y56.116 E10.28742
G1 X17.539 Y55.287 E10.30305
G1 X17.502 Y45.137 E10.49398
G1 X17.57 Y44.171 E10.51219
G1 X17.648 Y43.63 E10.52247
G1 X17.791 Y42.918 E10.53614
G1 X18.086 Y42.038 E10.55359
G1 X18.254 Y41.634 E10.56182
G1 X18.569 Y40.98 E10.57548
G1 X19.123 Y40.135 E10.59449
G1 X19.414 Y39.758 E10.60344
G1 X19.889 Y39.209 E10.6171
G1 X20.422 Y38.714 E10.63078
G1 X20.812 Y38.414 E10.64004
G1 X21.204 Y38.135 E10.64909
G1 X21.818 Y37.747 E10.66275
G0 F3600 X22.032 Y38.086
G1 F1800 X22.666 Y37.781 E10.67599
G1 X23.119 Y37.614 E10.68507
G1 X23.628 Y37.449 E10.69513
G1 X24.309 Y37.27 E10.70838
G1 X25.161 Y37.159 E10.72454
G1 X49.249 Y35.683 E11.1785
G1 X49.857 Y35.675 E11.18994
G1 X51.808 Y35.747 E11.22666
G1 X52.586 Y35.825 E11.24137
G1 X54.385 Y36.121 E11.27566
G1 X54.955 Y36.243 E11.28663
G1 X55.883 Y36.487 E11.30468
G1 X56.418 Y36.654 E11.31522
G1 X58.066 Y37.251 E11.34819
G1 X58.564 Y37.456 E11.35832
G1 X59.428 Y37.857 E11.37624
G1 X59.935 Y38.121 E11.38699
G1 X61.402 Y38.974 E11.41891
G1 X62.127 Y39.468 E11.43542
G1 X64.146 Y41.062 E11.4838
G1 X64.848 Y41.71 E11.50177
G1 X66.209 Y43.176 E11.5394
G1 X66.665 Y43.728 E11.55287
G1 X67.534 Y44.913 E11.58051
G1 X67.954 Y45.569 E11.59516
G1 X68.552 Y46.646 E11.61834
G1 X68.859 Y47.28 E11.63159
G1 X69.091 Y47.945 E11.64484
G1 X69.288 Y48.92 E11.66355
G1 X69.335 Y49.313 E11.67099
G1 X69.379 Y50.015 E11.68422
G1 X69.343 Y50.718 E11.69746
G1 X69.281 Y51.144 E11.70556
G1 X69.218 Y51.495 E11.71227
G1 X69.055 Y52.18 E11.72551
G1 X68.815 Y52.842 E11.73876
G1 X68.48 Y53.51 E11.75282
G1 X67.812 Y54.662 E11.77787
G1 X67.362 Y55.333 E11.79306
G1 X66.268 Y56.755 E11.82681
G1 X65.694 Y57.402 E11.84308
G1 X63.938 Y59.123 E11.88933
G1 X63.16 Y59.77 E11.90837
G1 X61.218 Y61.133 E11.953
G1 X60.369 Y61.633 E11.97153
G1 X58.172 Y62.702 E12.01749
G1 X57.215 Y63.073 E12.0368
G1 X54.872 Y63.765 E12.08275
G1 X53.864 Y63.974 E12.10212
G1 X51.346 Y64.28 E12.14983
G1 X50.547 Y64.325 E12.16488
G1 X49.216 Y64.314 E12.18992
G1 X48.888 Y64.302 E12.19609
G1 X25.247 Y62.853 E12.64163
G1 X24.548 Y62.77 E12.65487
G1 X23.862 Y62.609 E12.66812
G1 X23.45 Y62.471 E12.6763
G1 X22.655 Y62.173 E12.69227
G1 X22.011 Y61.888 E12.70552
G1 X21.403 Y61.533 E12.71876
G1 X20.839 Y61.111 E12.73201
G1 X20.263 Y60.559 E12.74702
G1 X19.783 Y60.036 E12.76037
G1 X19.337 Y59.491 E12.77362
G1 X18.956 Y58.9 E12.78684
G1 X18.527 Y57.969 E12.80613
G1 X18.315 Y57.388 E12.81776
G1 X18.111 Y56.714 E12.83101
G1 X17.986 Y56.022 E12.84423
G1 X17.939 Y55.286 E12.85811
G1 X17.902 Y45.136 E13.04903
G1 X17.965 Y44.228 E13.06616
G1 X18.043 Y43.687 E13.07644
G1 X18.183 Y42.997 E13.08968
G1 X18.455 Y42.191 E13.10568
G1 X18.623 Y41.787 E13.11391
G1 X18.93 Y41.154 E13.12715
G1 X19.44 Y40.38 E13.14458
G1 X19.731 Y40.003 E13.15354
G1 X20.192 Y39.471 E13.16678
G1 X20.711 Y38.994 E13.18004
G1 X21.044 Y38.74 E13.18792
G1 X21.436 Y38.461 E13.19697
G1 X22.032 Y38.086 E13.21022
G0 F3600 X22.245 Y38.425
G1 F1800 X22.86 Y38.134 E13.22301
G1 X23.242 Y37.995 E13.23066
G1 X23.751 Y37.83 E13.24073
G1 X24.41 Y37.658 E13.25354
G1 X25.185 Y37.558 E13.26824
G1 X49.273 Y36.082 E13.7222
G1 X49.842 Y36.075 E13.7329
G1 X51.793 Y36.147 E13.76962
G1 X52.521 Y36.22 E13.78339
G1 X54.32 Y36.516 E13.81768
G1 X54.853 Y36.63 E13.82793
G1 X55.781 Y36.874 E13.84598
G1 X56.281 Y37.03 E13.85584
G1 X57.929 Y37.627 E13.88881
G1 X58.396 Y37.819 E13.89831
G1 X59.26 Y38.22 E13.91622
G1 X59.733 Y38.467 E13.92626
G1 X61.2 Y39.32 E13.95818
G1 X61.879 Y39.782 E13.97363
G1 X63.898 Y41.376 E14.02202
G1 X64.555 Y41.982 E14.03883
G1 X65.916 Y43.448 E14.07646
G1 X66.342 Y43.964 E14.08905
G1 X67.211 Y45.149 E14.11669
G1 X67.605 Y45.763 E14.13041
G1 X68.203 Y46.84 E14.15358
G1 X68.498 Y47.454 E14.1664
G1 X68.719 Y48.098 E14.1792
G1 X68.891 Y48.967 E14.19587
G1 X68.938 Y49.36 E14.20331
G1 X68.979 Y50.04 E14.21613
G1 X68.94 Y50.72 E14.22894
G1 X68.888 Y51.074 E14.23567
G1 X68.825 Y51.425 E14.24238
G1 X68.665 Y52.087 E14.25519
G1 X68.429 Y52.725 E14.26799
G1 X68.133 Y53.309 E14.2803
G1 X67.465 Y54.461 E14.30535
G1 X67.045 Y55.089 E14.31956
G1 X65.951 Y56.511 E14.35331
G1 X65.414 Y57.116 E14.36853
G1 X63.658 Y58.837 E14.41478
G1 X62.93 Y59.442 E14.43258
G1 X60.988 Y60.805 E14.47721
G1 X60.194 Y61.273 E14.49455
G1 X57.997 Y62.342 E14.54051
G1 X57.102 Y62.689 E14.55857
G1 X54.759 Y63.381 E14.60452
G1 X53.816 Y63.577 E14.62264
G1 X51.298 Y63.883 E14.67035
G1 X50.55 Y63.925 E14.68444
G1 X49.219 Y63.914 E14.70948
G1 X48.912 Y63.903 E14.71526
G1 X25.271 Y62.454 E15.16079
G1 X24.595 Y62.373 E15.1736
G1 X23.933 Y62.213 E15.18641
G1 X23.59 Y62.096 E15.19323
G1 X22.795 Y61.798 E15.2092
G1 X22.173 Y61.522 E15.222
G1 X21.587 Y61.175 E15.23481
G1 X21.046 Y60.762 E15.24761
G1 X20.558 Y60.289 E15.2604
G1 X20.078 Y59.766 E15.27375
G1 X19.648 Y59.238 E15.28656
G1 X19.282 Y58.663 E15.29938
G1 X18.902 Y57.832 E15.31657
G1 X18.69 Y57.251 E15.3282
G1 X18.495 Y56.599 E15.34101
G1 X18.377 Y55.928 E15.35382
G1 X18.339 Y55.284 E15.36596
G1 X18.302 Y45.134 E15.55688
G1 X18.361 Y44.285 E15.57289
G1 X18.439 Y43.744 E15.58317
G1 X18.576 Y43.077 E15.59598
G1 X18.825 Y42.345 E15.61053
G1 X18.993 Y41.941 E15.61876
G1 X19.29 Y41.329 E15.63155
G1 X19.757 Y40.624 E15.64746
G1 X20.048 Y40.247 E15.65642
G1 X20.495 Y39.733 E15.66923
G1 X20.999 Y39.276 E15.68203
G1 X21.276 Y39.066 E15.68857
G1 X21.668 Y38.787 E15.69762
G1 X22.245 Y38.425 E15.71043
G0 F3600 X22.457 Y38.765
G1 F1800 X23.053 Y38.487 E15.7228
G1 X23.366 Y38.375 E15.72906
G1 X23.875 Y38.21 E15.73912
G1 X24.511 Y38.046 E15.75148
G1 X25.21 Y37.957 E15.76473
G1 X49.298 Y36.481 E16.21869
G1 X49.827 Y36.475 E16.22864
G1 X51.778 Y36.547 E16.26537
G1 X52.456 Y36.615 E16.27818
G1 X54.255 Y36.911 E16.31248
G1 X54.751 Y37.017 E16.32202
G1 X55.679 Y37.261 E16.34007
G1 X56.145 Y37.406 E16.34925
G1 X57.793 Y38.003 E16.38222
G1 X58.227 Y38.182 E16.39105
G1 X59.091 Y38.583 E16.40897
G1 X59.532 Y38.813 E16.41832
G1 X60.999 Y39.666 E16.45024
G1 X61.631 Y40.096 E16.46462
